X:1
T:God Is Always Near Me
T:God Is Always Near Me
T:Philip Paul Bliss
T:Philip Paul Bliss, 1871
T:Public Domain Courtesy of the Cyber Hymnal™
C:Philip Paul Bliss
Z:Public Domain
Z:Courtesy of the Cyber Hymnal™
%%score 1 2
L:1/8
Q:1/4=100
M:2/4
K:Bb
V:1 treble 
V:2 bass 
V:1
 [DF][DB] [FA][EG] | [DF]2 [B,D]2 | [CE][EG] [DF][CE] | [B,D]4 | [DF][DF] [FB][FB] | %5
w: 1.~God is al- ways|near me,|Hear- ing what I|say;|Know- ing all my|
w: 2.~God is al- ways|near me,|In the dark- est|night,|He can see me|
w: 3.~God is al- ways|near me,|Though so young and|small;|Not a look, or|
 [Fc][Fc] [Fd]2 | [EG][Ec] [DB][CA] | [DB]4 |] %8
w: thoughts and deeds,|All my work and|play.|
w: just the same|As by mid- day|light.|
w: word, or thought,|But God knows it|all.|
V:2
 [B,,B,][B,,B,] [B,,B,][B,,B,] | [B,,B,]2 [B,,F,]2 | F,F, F,F, | [B,,F,]4 | %4
 [B,,B,][B,,B,] [D,B,][D,B,] | [F,A,][F,A,] B,2 | [E,B,][E,G,] F,F, | [B,,F,]4 |] %8

